material/.icons/material/turnstile-outline.svg

<svg xmlns="http://www.w3.org/2000/svg" viewBox="0 0 24 24"><path d="M13.41 10.41c-.37.38-.88.59-1.41.59a2 2 0 01-2-2c0-.53.21-1.04.59-1.41L9.17 6.17C8.42 6.92 8 7.94 8 9H2v2h6.55c.35.6.85 1.1 1.45 1.45V19h2v-6c1.06 0 2.08-.42 2.83-1.17l-1.42-1.42M10 2v3l6 6v11h6V2H10m10 18h-2v-9.83l-6-6V4h8v16z"/></svg>

<?xml version="1.0" encoding="UTF-8"?><!DOCTYPE svg PUBLIC "-//W3C//DTD SVG 1.1//EN" "http://www.w3.org/Graphics/SVG/1.1/DTD/svg11.dtd"><svg xmlns="http://www.w3.org/2000/svg" xmlns:xlink="http://www.w3.org/1999/xlink" version="1.1" id="mdi-turnstile-outline" width="24" height="24" viewBox="0 0 24 24"><path d="M13.41,10.41C13.04,10.79 12.53,11 12,11A2,2 0 0,1 10,9C10,8.47 10.21,7.96 10.59,7.59L9.17,6.17C8.42,6.92 8,7.94 8,9H2V11H8.55C8.9,11.6 9.4,12.1 10,12.45V19H12V13C13.06,13 14.08,12.58 14.83,11.83L13.41,10.41M10,2V5L16,11V22H22V2H10M20,20H18V10.17L12,4.17V4H20V20Z" /></svg>
